X: 29778
T: O'Arranmore
R: barndance
M: 4/4
K: Dminor
A|:d>efe dAA>F|G>FGA c3A|d>efe dAG>F|1 G>FDD D3A:|2 G>FDD D2zc||
|:c>AFG A>BAF|c>AFA c3A|d>efe d>AAF|G>FDD D3z:|

